images/logo.svg

<svg width="40" height="40" viewBox="0 0 40 40" fill="none" xmlns="http://www.w3.org/2000/svg">
<g clip-path="url(#clip0_10103_6)">
<path d="M39.9023 37.3864L38.2047 31.3961C37.8701 30.2157 37.9309 28.9531 38.4116 27.8244C39.5251 25.2111 40.097 22.3149 39.9875 19.2726C39.6103 8.70975 30.9276 0.19135 20.3617 0.00272783C9.0292 -0.198063 -0.198063 9.0292 0.00272783 20.3617C0.19135 30.9276 8.70976 39.6103 19.2695 39.9875C21.9285 40.0818 24.4749 39.6559 26.8205 38.8041C28.6885 38.1256 30.7177 38.01 32.6282 38.5546L37.3803 39.9054C38.9166 40.3435 40.3374 38.9227 39.9023 37.3864ZM11.0645 19.9997C11.0645 15.0651 15.0651 11.0645 19.9997 11.0645C24.9343 11.0645 28.9349 15.0651 28.9349 19.9997C28.9349 24.9343 24.9343 28.9349 19.9997 28.9349C15.0651 28.9349 11.0645 24.9343 11.0645 19.9997Z" fill="url(#paint0_linear_10103_6)"/>
<path d="M37.8917 29.0203C37.8917 29.0203 37.8217 28.7982 37.6848 28.4027C36.62 25.3848 31.442 12.3181 21.2047 11.1499C25.5704 11.7371 28.9352 15.476 28.9352 19.9999C28.9352 24.9345 24.9346 28.9351 20 28.9351V39.9969C22.3943 39.9969 24.6912 39.5801 26.8208 38.8073C28.6888 38.1289 30.718 38.0133 32.6285 38.5579L37.3806 39.9086C38.917 40.3437 40.3377 38.926 39.9027 37.3866L38.2051 31.3963C38.0043 30.6936 37.9495 29.9573 38.0377 29.2424L37.8917 29.0203Z" fill="url(#paint1_linear_10103_6)"/>
</g>
<defs>
<linearGradient id="paint0_linear_10103_6" x1="4.85174" y1="-0.000474682" x2="40.3752" y2="2.96995" gradientUnits="userSpaceOnUse">
<stop stop-color="#DF5950"/>
<stop offset="1" stop-color="#451046"/>
</linearGradient>
<linearGradient id="paint1_linear_10103_6" x1="22.4239" y1="11.1499" x2="40.2336" y2="12.1815" gradientUnits="userSpaceOnUse">
<stop stop-color="#DF5950"/>
<stop offset="1" stop-color="#451046"/>
</linearGradient>
<clipPath id="clip0_10103_6">
<rect width="40" height="40" fill="white"/>
</clipPath>
</defs>
</svg>

<svg width="40" height="40" fill="none" xmlns="http://www.w3.org/2000/svg"><g clip-path="url(#a)"><path d="m39.902 37.386-1.697-5.99a5.376 5.376 0 0 1 .207-3.572 19.919 19.919 0 0 0 1.575-8.551C39.61 8.71 30.927.19 20.362.003 9.029-.198-.198 9.029.002 20.362.193 30.928 8.71 39.61 19.27 39.987a19.984 19.984 0 0 0 7.55-1.183c1.869-.678 3.898-.794 5.808-.25l4.752 1.351c1.537.438 2.957-.982 2.522-2.519ZM11.065 20a8.935 8.935 0 1 1 17.87 0 8.935 8.935 0 0 1-17.87 0Z" fill="url(#b)"/><path d="M37.892 29.02s-.07-.222-.207-.617c-1.065-3.018-6.243-16.085-16.48-17.253 4.365.587 7.73 4.326 7.73 8.85 0 4.934-4 8.935-8.935 8.935v11.062c2.394 0 4.691-.417 6.82-1.19 1.869-.678 3.898-.794 5.809-.25l4.752 1.352c1.536.435 2.957-.983 2.522-2.522l-1.698-5.99a5.436 5.436 0 0 1-.167-2.155l-.146-.222Z" fill="url(#c)"/></g><defs><linearGradient id="b" x1="4.852" y1="0" x2="40.375" y2="2.97" gradientUnits="userSpaceOnUse"><stop stop-color="#DF5950"/><stop offset="1" stop-color="#451046"/></linearGradient><linearGradient id="c" x1="22.424" y1="11.15" x2="40.234" y2="12.181" gradientUnits="userSpaceOnUse"><stop stop-color="#DF5950"/><stop offset="1" stop-color="#451046"/></linearGradient><clipPath id="a"><path fill="#fff" d="M0 0h40v40H0z"/></clipPath></defs></svg>
